file/rosneft.svg

<svg clip-rule="evenodd" fill-rule="evenodd" stroke-linejoin="round" stroke-miterlimit="1.41421" viewBox="0 0 560 400" xmlns="http://www.w3.org/2000/svg"><g fill-rule="nonzero" transform="matrix(.317876 0 0 .317876 117.248 93.9885)"><path d="m523.241 484.833h38.841v-209.643h-38.841zm-46.591 0h38.832v-256.234h-38.832zm-46.582 0h38.823v-209.643h-38.823z" fill="#d9bb6c"/><path d="m655.229 251.868-38.797 38.823v-132.112h38.832m-46.6 139.862-38.832 38.85v-225.348h38.832m-85.423 155.47h38.85v-201.946h-38.85zm-46.591-46.591h38.823v-201.91h-38.823zm-46.582 46.591h38.814v-201.946h-38.814zm-7.777 69.869-38.832-38.841v-186.498h38.832m-85.415 46.636v93.28l38.814 38.841v-132.121"/><path d="m120.806 532.667c19.434 0 35.316 15.634 35.316 34.739v7.457c0 16.256-11.497 29.981-26.864 33.728l31.969 39.497h-46.165l-31.153-38.476h-18.865v38.476h-46.165v-115.412c-.506 0 54.297-.007 101.927-.007m-55.762 50.009h39.222c5.824 0 10.601-4.688 10.601-10.423v-2.228c0-5.744-4.768-10.423-10.601-10.423h-39.222m284.909 88.477h65.404c20.108 0 36.559-16.442 36.559-36.541 0-20.117-16.451-36.55-36.559-36.55h-45.712c-3.418 0-6.224-2.797-6.224-6.206v-2.983c0-3.409 2.797-6.197 6.224-6.197h29.883c3.418 0 6.214 2.788 6.214 6.197v1.483h46.121c-1.021-19.212-17.046-34.615-36.506-34.615h-65.404c-20.09 0-36.55 16.441-36.55 36.55 0 20.099 16.46 36.541 36.55 36.541h45.73c3.418 0 6.224 2.797 6.224 6.215v2.974c0 3.409-2.814 6.214-6.224 6.214h-29.891c-3.418 0-6.215-2.805-6.215-6.214v-1.483h-46.121c1.012 19.194 17.046 34.615 36.497 34.615m209.688 0h46.156v-115.412h-46.156v66.522l-53.872-66.522h-46.156v115.412h46.156v-66.513m241.923 66.513h46.174v-42.321h69.177v-30.77l-69.177-.196v-11.346h77.833v-30.779h-124.007m-586.438 57.546c0 37.802 24.707 57.866 73.509 57.866 48.81 0 73.518-20.064 73.518-57.866 0-37.811-24.708-57.546-73.518-57.546-48.802 0-73.509 19.735-73.509 57.546m73.509-30.62c15.003 0 27.264 10.432 27.264 23.216v15.128c0 12.775-12.261 23.233-27.264 23.233-14.986 0-27.255-10.458-27.255-23.233v-15.128c0-12.784 12.269-23.216 27.255-23.216m380.027 88.486h127.78v-30.771h-81.624v-11.55h69.168v-30.77l-69.168-.196v-11.346h77.833v-30.779h-123.989m303.678 115.412h46.182v-84.633h40.48v-30.771h-128.3v30.771h41.638"/></g></svg>

<?xml version="1.0" encoding="UTF-8" standalone="no"?>
<!DOCTYPE svg PUBLIC "-//W3C//DTD SVG 1.1//EN" "http://www.w3.org/Graphics/SVG/1.1/DTD/svg11.dtd">
<svg width="100%" height="100%" viewBox="0 0 560 400" version="1.1" xmlns="http://www.w3.org/2000/svg" xmlns:xlink="http://www.w3.org/1999/xlink" xml:space="preserve" xmlns:serif="http://www.serif.com/" style="fill-rule:evenodd;clip-rule:evenodd;stroke-linejoin:round;stroke-miterlimit:1.41421;">
    <g transform="matrix(0.317876,0,0,0.317876,117.248,93.9885)">
        <path id="path3444" d="M523.241,484.833L562.082,484.833L562.082,275.19L523.241,275.19L523.241,484.833ZM476.65,484.833L515.482,484.833L515.482,228.599L476.65,228.599L476.65,484.833ZM430.068,484.833L468.891,484.833L468.891,275.19L430.068,275.19L430.068,484.833Z" style="fill:rgb(217,187,108);fill-rule:nonzero;"/>
        <path id="path3466" d="M655.229,251.868L616.432,290.691L616.432,158.579L655.264,158.579M608.664,298.441L569.832,337.291L569.832,111.943L608.664,111.943M523.241,267.413L562.091,267.413L562.091,65.467L523.241,65.467L523.241,267.413ZM476.65,220.822L515.473,220.822L515.473,18.912L476.65,18.912L476.65,220.822ZM430.068,267.413L468.882,267.413L468.882,65.467L430.068,65.467L430.068,267.413ZM422.291,337.282L383.459,298.441L383.459,111.943L422.291,111.943M336.876,158.579L336.876,251.859L375.69,290.7L375.69,158.579" style="fill-rule:nonzero;"/>
        <path id="path3510" d="M120.806,532.667C140.24,532.667 156.122,548.301 156.122,567.406L156.122,574.863C156.122,591.119 144.625,604.844 129.258,608.591L161.227,648.088L115.062,648.088L83.909,609.612L65.044,609.612L65.044,648.088L18.879,648.088L18.879,532.676C18.373,532.676 73.176,532.669 120.806,532.669M65.044,582.678L104.266,582.678C110.09,582.678 114.867,577.99 114.867,572.255L114.867,570.027C114.867,564.283 110.099,559.604 104.266,559.604L65.044,559.604M349.953,648.081L415.357,648.081C435.465,648.081 451.916,631.639 451.916,611.54C451.916,591.423 435.465,574.99 415.357,574.99L369.645,574.99C366.227,574.99 363.421,572.193 363.421,568.784L363.421,565.801C363.421,562.392 366.218,559.604 369.645,559.604L399.528,559.604C402.946,559.604 405.742,562.392 405.742,565.801L405.742,567.284L451.863,567.284C450.842,548.072 434.817,532.669 415.357,532.669L349.953,532.669C329.863,532.669 313.403,549.11 313.403,569.219C313.403,589.318 329.863,605.76 349.953,605.76L395.683,605.76C399.101,605.76 401.907,608.557 401.907,611.975L401.907,614.949C401.907,618.358 399.093,621.163 395.683,621.163L365.792,621.163C362.374,621.163 359.577,618.358 359.577,614.949L359.577,613.466L313.456,613.466C314.468,632.66 330.502,648.081 349.953,648.081M559.641,648.081L605.797,648.081L605.797,532.669L559.641,532.669L559.641,599.191L505.769,532.669L459.613,532.669L459.613,648.081L505.769,648.081L505.769,581.568M747.692,648.081L793.866,648.081L793.866,605.76L863.043,605.76L863.043,574.99L793.866,574.794L793.866,563.448L871.699,563.448L871.699,532.669L747.692,532.669M161.254,590.215C161.254,628.017 185.961,648.081 234.763,648.081C283.573,648.081 308.281,628.017 308.281,590.215C308.281,552.404 283.573,532.669 234.763,532.669C185.961,532.669 161.254,552.404 161.254,590.215M234.763,559.595C249.766,559.595 262.027,570.027 262.027,582.811L262.027,597.939C262.027,610.714 249.766,621.172 234.763,621.172C219.777,621.172 207.508,610.714 207.508,597.939L207.508,582.811C207.508,570.027 219.777,559.595 234.763,559.595M614.79,648.081L742.57,648.081L742.57,617.31L660.946,617.31L660.946,605.76L730.114,605.76L730.114,574.99L660.946,574.794L660.946,563.448L738.779,563.448L738.779,532.669L614.79,532.669M918.468,648.081L964.65,648.081L964.65,563.448L1005.13,563.448L1005.13,532.677L876.83,532.677L876.83,563.448L918.468,563.448" style="fill-rule:nonzero;"/>
    </g>
</svg>
